src/assets/flags/nzd.svg

<svg width="28" height="28" viewBox="0 0 28 28" fill="none" xmlns="http://www.w3.org/2000/svg">
<g clip-path="url(#clip0)">
<path d="M28 0H0V28H28V0Z" fill="#00247D"/>
<mask id="mask0" mask-type="alpha" maskUnits="userSpaceOnUse" x="0" y="0" width="14" height="10">
<rect width="14" height="9.3" fill="#C4C4C4"/>
</mask>
<g mask="url(#mask0)">
<path d="M-4.66699 0L13.9997 9.33333L-4.66699 0ZM-4.66699 9.33333L13.9997 0L-4.66699 9.33333Z" fill="black"/>
<path d="M-4.66699 9.33333L13.9997 0M-4.66699 0L13.9997 9.33333L-4.66699 0Z" stroke="white" stroke-width="1.86667"/>
<path d="M-4.66699 0L13.9997 9.33333L-4.66699 0ZM-4.66699 9.33333L13.9997 0L-4.66699 9.33333Z" fill="black"/>
<path d="M-4.66699 9.33333L13.9997 0M-4.66699 0L13.9997 9.33333L-4.66699 0Z" stroke="#CC142B" stroke-width="1.24413"/>
<path d="M4.66634 0V9.33333V0ZM-4.66699 4.66667H13.9997H-4.66699Z" fill="black"/>
<path d="M-4.66699 4.66667H13.9997M4.66634 0V9.33333V0Z" stroke="white" stroke-width="3.1108"/>
<path d="M4.66634 0V9.33333V0ZM-4.66699 4.66667H13.9997H-4.66699Z" fill="black"/>
<path d="M-4.66699 4.66667H13.9997M4.66634 0V9.33333V0Z" stroke="#CC142B" stroke-width="1.86667"/>
</g>
<path d="M25.7734 6.53895L26.5509 7.10268L26.2541 8.01641L27.0306 7.45175L27.8072 8.01641L27.5104 7.10268L28.2878 6.53895H27.3274L27.0306 5.62521L26.7338 6.53895H25.7734Z" fill="white"/>
<path d="M26.2529 6.69481L26.7336 7.04388L26.5497 7.60855L27.0304 7.25948L27.5111 7.60855L27.3272 7.04388L27.8079 6.69481H27.2143L27.0304 6.12921L26.8465 6.69481H26.2529Z" fill="#CC142B"/>
<path d="M21.9219 3.27412L22.7945 3.90878L22.4613 4.93452L23.334 4.30078L24.2067 4.93452L23.8735 3.90878L24.7461 3.27412H23.6672L23.334 2.24838L23.0008 3.27412H21.9219Z" fill="white"/>
<path d="M22.4004 3.43L22.9772 3.84907L22.7569 4.5276L23.3337 4.10853L23.9105 4.5276L23.6903 3.84907L24.2671 3.43H23.554L23.3337 2.75146L23.1135 3.43H22.4004Z" fill="#CC142B"/>
<path d="M17.6074 7.61413L18.481 8.24786L18.1469 9.27453L19.0205 8.63986L19.8932 9.27453L19.56 8.24786L20.4326 7.61413H19.3537L19.0205 6.58746L18.6873 7.61413H17.6074Z" fill="white"/>
<path d="M18.0879 7.76999L18.6647 8.18906L18.4444 8.86666L19.0212 8.44759L19.598 8.86666L19.3778 8.18906L19.9546 7.76999H19.2415L19.0212 7.09146L18.801 7.76999H18.0879Z" fill="#CC142B"/>
<path d="M21.7646 14.4238L22.7334 15.1284L22.3638 16.2671L23.3326 15.5634L24.3014 16.2671L23.9319 15.1284L24.9006 14.4238H23.7032L23.3326 13.2851L22.9621 14.4238H21.7646Z" fill="white"/>
<path d="M22.2441 14.5796L22.9171 15.0687L22.6604 15.8592L23.3333 15.3711L24.0063 15.8592L23.7496 15.0687L24.4225 14.5796H23.59L23.3333 13.7881L23.0767 14.5796H22.2441Z" fill="#CC142B"/>
</g>
<defs>
<clipPath id="clip0">
<path d="M0 14C0 6.26802 6.26802 0 14 0C21.732 0 28 6.26802 28 14C28 21.732 21.732 28 14 28C6.26802 28 0 21.732 0 14Z" fill="white"/>
</clipPath>
</defs>
</svg>

<svg width="28" height="28" viewBox="0 0 28 28" fill="none" xmlns="http://www.w3.org/2000/svg">
  <g clip-path="url(#clip0)">
    <path d="M28 0H0v28h28V0z" fill="#00247D"/>
    <mask id="a" maskUnits="userSpaceOnUse" x="0" y="0" width="14" height="10">
      <path fill="#C4C4C4" d="M0 0h14v9.3H0z"/>
    </mask>
    <g mask="url(#a)">
      <path d="M-4.67 0L14 9.33-4.67 0zm0 9.33L14 0-4.67 9.33z" fill="#000"/>
      <path d="M-4.67 9.33L14 0M-4.67 0L14 9.33-4.67 0z" stroke="#fff" stroke-width="1.87"/>
      <path d="M-4.67 0L14 9.33-4.67 0zm0 9.33L14 0-4.67 9.33z" fill="#000"/>
      <path d="M-4.67 9.33L14 0M-4.67 0L14 9.33-4.67 0z" stroke="#CC142B" stroke-width="1.24"/>
      <path d="M4.67 0v9.33V0zm-9.34 4.67H14-4.67z" fill="#000"/>
      <path d="M-4.67 4.67H14M4.67 0v9.33V0z" stroke="#fff" stroke-width="3.11"/>
      <path d="M4.67 0v9.33V0zm-9.34 4.67H14-4.67z" fill="#000"/>
      <path d="M-4.67 4.67H14M4.67 0v9.33V0z" stroke="#CC142B" stroke-width="1.87"/>
    </g>
    <path d="M25.77 6.54l.78.56-.3.92.78-.57.78.57-.3-.92.78-.56h-.96l-.3-.91-.3.9h-.96z" fill="#fff"/>
    <path d="M26.25 6.7l.48.34-.18.57.48-.35.48.35-.18-.57.48-.35h-.6l-.18-.56-.18.56h-.6z" fill="#CC142B"/>
    <path d="M21.92 3.27l.87.64-.33 1.02.87-.63.88.63-.34-1.02.88-.64h-1.08l-.34-1.02L23 3.27h-1.08z" fill="#fff"/>
    <path d="M22.4 3.43l.58.42-.22.68.57-.42.58.42-.22-.68.58-.42h-.72l-.22-.68-.22.68h-.71z" fill="#CC142B"/>
    <path d="M17.6 7.61l.88.64-.33 1.02.87-.63.87.63-.33-1.02.87-.64h-1.08l-.33-1.02-.33 1.02H17.6z" fill="#fff"/>
    <path d="M18.09 7.77l.57.42-.22.68.58-.42.58.42-.22-.68.57-.42h-.7l-.23-.68-.22.68h-.71z" fill="#CC142B"/>
    <path d="M21.76 14.42l.97.7-.37 1.15.97-.7.97.7-.37-1.14.97-.7h-1.2l-.37-1.14-.37 1.13h-1.2z" fill="#fff"/>
    <path d="M22.24 14.58l.68.49-.26.79.67-.49.68.49-.26-.8.67-.48h-.83l-.26-.8-.25.8h-.84z" fill="#CC142B"/>
  </g>
  <defs>
    <clipPath id="clip0">
      <path d="M0 14a14 14 0 1128 0 14 14 0 01-28 0z" fill="#fff"/>
    </clipPath>
  </defs>
</svg>
